brandFactory_export/3.Masa/API_3Masa.svg

<?xml version="1.0" encoding="UTF-8"?>
<svg width="24px" height="24px" viewBox="0 0 24 24" version="1.1" xmlns="http://www.w3.org/2000/svg" xmlns:xlink="http://www.w3.org/1999/xlink">
    <title>3.Masa/API_3Masa</title>
    <g id="Symbols" stroke="none" stroke-width="1" fill="none" fill-rule="evenodd">
        <g id="3.Masa/API_3Masa" fill="#5CB615" fill-rule="nonzero">
            <path d="M21.8689076,3.02689076 C22.8369748,3.02689076 23.6235294,3.78319328 23.6235294,4.71764706 L23.6235294,19.0571429 C23.6235294,19.9882353 22.8369748,20.7445489 21.8689076,20.7445489 L1.75462185,20.7445489 C0.786554622,20.7478992 2.19149143e-10,19.9882353 2.19149143e-10,19.0571429 L2.19149143e-10,4.71764706 C2.19149143e-10,3.78655462 0.786554622,3.02689076 1.75462185,3.02689076 L21.8689076,3.02689076 Z M22.1445378,8.21344538 L1.4789916,8.21344538 L1.4789916,19.0571429 C1.4789916,19.2016807 1.6,19.3193277 1.7512605,19.3193277 L14.2184874,19.3193277 C14.2722689,19.2016807 14.3462185,19.0941176 14.4403361,19.0033613 L14.8840336,18.5764706 C14.8403361,18.4588235 14.8033613,18.3411765 14.7697479,18.2201681 L14.2722689,18.2201681 C13.6235294,18.2201681 13.092437,17.7092437 13.092437,17.0840336 L13.092437,16.2907563 C13.092437,15.6655462 13.6201681,15.1579832 14.2722689,15.1579832 L14.7697479,15.1579832 C14.8,15.0436975 14.8369748,14.9226891 14.8840336,14.8016807 L14.4403361,14.3781513 C13.9932773,13.9512605 13.9798319,13.2420168 14.4067227,12.7983193 C14.4168067,12.7848739 14.4302521,12.7747899 14.4403361,12.7647059 L15.0420168,12.1831933 C15.512605,11.7361345 16.2487395,11.7361345 16.7193277,12.1831933 L17.1630252,12.6134454 C17.2806723,12.5731092 17.4016807,12.5361345 17.5294118,12.502521 L17.5294118,12.0252101 C17.5294118,11.3966387 18.0571429,10.8890756 18.7092437,10.8890756 L19.5327731,10.8890756 C20.1815126,10.8890756 20.712605,11.3966387 20.712605,12.0252101 L20.712605,12.502521 C20.8369748,12.5361345 20.9579832,12.5731092 21.0789916,12.6168067 L21.5226891,12.189916 C21.697479,12.0151261 21.912605,11.9142857 22.1445378,11.8739496 L22.1445378,8.21344538 Z M19.0621849,14.3815126 C17.6672269,14.3815126 16.8033613,15.2151261 16.8033613,16.5563025 C16.8033613,17.897479 17.6672269,18.7310924 19.0621849,18.7310924 C20.4571429,18.7310924 21.3210084,17.897479 21.3210084,16.5563025 C21.3210084,15.2151261 20.4537815,14.3815126 19.0621849,14.3815126 Z M8.65882353,10.8991597 C9.33781513,10.8991597 9.76806723,10.9932773 10.0470588,11.2554622 C10.2823529,11.4705882 10.3966387,11.8067227 10.3966387,12.2705882 C10.3966387,12.7344538 10.2890756,13.0806723 10.0739496,13.3226891 C9.82184874,13.6084034 9.42857143,13.7394958 8.85714286,13.7394958 L8.16134454,13.7394958 L8.16134454,15.2352941 L7.17310924,15.2352941 L7.17310924,10.8991597 L8.65882353,10.8991597 Z M5.10252101,10.8991597 L6.66554622,15.2319328 L5.60672269,15.2319328 L5.24705882,14.1428571 L3.84201681,14.1428571 L3.50588235,15.2319328 L2.56470588,15.2319328 L4.01344538,10.8991597 L5.10252101,10.8991597 Z M12.0941176,10.8991597 L12.0941176,15.2319328 L11.1058824,15.2319328 L11.1058824,10.8991597 L12.0941176,10.8991597 Z M4.53445378,11.9815126 L4.5210084,11.9815126 L4.07058824,13.4268908 L5.00840336,13.4268908 L4.53445378,11.9815126 Z M8.6184874,11.6151261 L8.15462185,11.6151261 L8.15462185,12.9966387 L8.64537815,12.9966387 C8.96134454,12.9966387 9.09579832,12.9529412 9.22016807,12.8319328 C9.33445378,12.7176471 9.39159664,12.5327731 9.39159664,12.2806723 C9.39159664,12.0453782 9.34117647,11.8739496 9.22689076,11.7663866 C9.10588235,11.6588235 8.92436975,11.6151261 8.6184874,11.6151261 Z M2.93445378,4.95294118 C2.55462185,4.95294118 2.2487395,5.2487395 2.2487395,5.61176471 C2.2487395,5.97478992 2.55462185,6.27058824 2.93445378,6.27058824 C3.30420168,6.27731092 3.61344538,5.98151261 3.62016807,5.61176471 C3.62016807,5.2487395 3.31428571,4.95294118 2.93445378,4.95294118 Z M4.99159664,4.95294118 C4.61176471,4.95294118 4.30588235,5.2487395 4.30588235,5.61176471 C4.30588235,5.97478992 4.61176471,6.27058824 4.99159664,6.27058824 C5.36134454,6.27731092 5.67058824,5.98151261 5.67731092,5.61176471 C5.67731092,5.2487395 5.37142857,4.95294118 4.99159664,4.95294118 Z M7.0487395,4.95294118 C6.66890756,4.95294118 6.36302521,5.2487395 6.36302521,5.61176471 C6.36302521,5.97478992 6.66890756,6.27058824 7.0487395,6.27058824 C7.4184874,6.27731092 7.72773109,5.98151261 7.73445378,5.61176471 C7.73445378,5.2487395 7.42857143,4.95294118 7.0487395,4.95294118 Z" id="API_3Masa"></path>
        </g>
    </g>
</svg>

<svg width="24" height="24" viewBox="0 0 24 24" xmlns="http://www.w3.org/2000/svg"><path d="M21.869 3.027c.968 0 1.755.756 1.755 1.69v14.34c0 .931-.787 1.688-1.755 1.688H1.755C.787 20.748 0 19.988 0 19.057V4.717c0-.93.787-1.69 1.755-1.69h20.114zm.276 5.186H1.479v10.844c0 .145.121.262.272.262h12.467c.054-.117.128-.225.222-.316l.444-.427a4.393 4.393 0 01-.114-.356h-.498c-.648 0-1.18-.51-1.18-1.136v-.793c0-.625.528-1.133 1.18-1.133h.498c.03-.114.067-.235.114-.356l-.444-.424a1.116 1.116 0 01-.033-1.58c.01-.013.023-.023.033-.033l.602-.582a1.216 1.216 0 011.677 0l.444.43c.118-.04.239-.077.366-.11v-.478c0-.628.528-1.136 1.18-1.136h.824c.649 0 1.18.508 1.18 1.136v.478c.124.033.245.07.366.114l.444-.427a1.14 1.14 0 01.622-.316v-3.66zm-3.083 6.169c-1.395 0-2.259.833-2.259 2.174s.864 2.175 2.26 2.175c1.394 0 2.258-.834 2.258-2.175 0-1.34-.867-2.174-2.259-2.174zM8.66 10.899c.679 0 1.11.094 1.388.356.235.216.35.552.35 1.016 0 .463-.108.81-.323 1.052-.252.285-.645.416-1.217.416h-.696v1.496h-.988V10.9H8.66zm-3.556 0l1.563 4.333h-1.06l-.359-1.09H3.842l-.336 1.09h-.941l1.448-4.333h1.09zm6.991 0v4.333h-.988v-4.333h.988zm-7.56 1.083h-.013l-.45 1.445h.937l-.474-1.445zm4.084-.367h-.463v1.382h.49c.316 0 .45-.044.575-.165.114-.114.172-.3.172-.551 0-.236-.05-.407-.165-.515-.121-.107-.303-.15-.609-.15zM2.934 4.953a.672.672 0 00-.685.659c0 .363.306.659.685.659.37.006.68-.29.686-.66a.672.672 0 00-.686-.658zm2.058 0a.672.672 0 00-.686.659c0 .363.306.659.686.659.37.006.679-.29.685-.66a.672.672 0 00-.685-.658zm2.057 0a.672.672 0 00-.686.659c0 .363.306.659.686.659.37.006.679-.29.685-.66a.672.672 0 00-.685-.658z" fill="#5CB615" fill-rule="nonzero"/></svg>
